X:227
T:Popcorn Behaviour
C:Jay Ungar
Z:robin.beech@mcgill.ca
R:reel
S:Hurley's Session Montreal
M:4/4
L:1/8
K:Amin
ee | aeef ecBA | BABc BAGF | EAcA EAcA | BABc B^ggg |
aeef ecBA | BABc BAGE | DFAc dcAF |1 ECDB, A,2 :|2 ECDB, A,B,CD |:
EA,A,E FA,A,F | EA,A,E DA,A,D | A,B,CD EDCA | GECD  EFGD |
EA,A,E FA,A,F | ^FA,A,F =FDDF | DFAc dcAF | GEDB, A,B,CD :|
